packages/dnb-eufemia/assets/icons/thumbs_down_medium.svg

<svg width="24" height="24" viewBox="0 0 24 24" fill="none" xmlns="http://www.w3.org/2000/svg">
<path d="M2.01055 12.6152L1.26497 12.5339L1.26405 12.5423L1.26333 12.5507L2.01055 12.6152ZM2.75224 14.6146L3.28058 14.0823L3.28056 14.0823L2.75224 14.6146ZM21.3772 13.6813L21.3427 12.9321L21.3772 13.6813ZM21.9814 13.0008L21.2415 12.8783L21.2415 12.8783L21.9814 13.0008ZM22 8.68822L22.75 8.68818V8.68818L22 8.68822ZM21.9711 4.35556L21.2378 4.51263L21.2378 4.51268L21.9711 4.35556ZM21.2766 3.70848L21.3954 2.96796L21.3954 2.96795L21.2766 3.70848ZM17.2182 3.70825L17.3342 4.44923L17.3342 4.44923L17.2182 3.70825ZM8.16051 15.3773L8.8461 15.6814C8.94969 15.4478 8.92725 15.1776 8.78655 14.9643C8.64586 14.751 8.40627 14.6241 8.15078 14.6274L8.16051 15.3773ZM9.33167 21.9797L9.45735 21.2403L9.44943 21.239L9.44147 21.2378L9.33167 21.9797ZM11.0058 21.185L10.3293 20.8612L11.0058 21.185ZM15.7518 13.7761L16.2263 14.357L16.2309 14.3532L15.7518 13.7761ZM12.089 17.866L11.4226 17.5217L12.089 17.866ZM15.9769 3.72437L15.5533 4.3433L15.9769 3.72437ZM5.95207 2.154L6.13445 2.88148L6.13446 2.88148L5.95207 2.154ZM3.79487 5.40551L4.40743 5.83826L4.60546 5.55794L4.52277 5.22482L3.79487 5.40551ZM3.0901 8.14263L3.72898 8.53548L3.88358 8.28407L3.82537 7.99472L3.0901 8.14263ZM2.71779 10.9116L3.35546 11.3064L3.53119 11.0226L3.43792 10.7021L2.71779 10.9116ZM1.26333 12.5507C1.17715 13.5479 1.51043 14.4389 2.22392 15.147L3.28056 14.0823C2.87692 13.6817 2.71058 13.2257 2.75776 12.6798L1.26333 12.5507ZM2.2239 15.1469C2.7126 15.632 3.26434 15.929 3.9343 16.059L4.2199 14.5864C3.85026 14.5147 3.56462 14.3642 3.28058 14.0823L2.2239 15.1469ZM21.4118 14.4305C21.8504 14.4102 22.1683 14.1574 22.3552 13.9297C22.5459 13.6976 22.6741 13.4087 22.7213 13.1233L21.2415 12.8783C21.2398 12.8884 21.235 12.907 21.2249 12.9294C21.2148 12.9517 21.2037 12.9684 21.196 12.9778C21.1877 12.9878 21.1907 12.9808 21.2114 12.9685C21.2341 12.955 21.2794 12.935 21.3427 12.9321L21.4118 14.4305ZM22.7213 13.1233C22.7312 13.064 22.7328 13.0023 22.7329 13.0009C22.7339 12.9775 22.7347 12.9496 22.7354 12.9195C22.7368 12.8584 22.738 12.775 22.7392 12.672C22.7415 12.4652 22.7435 12.1705 22.7451 11.7981C22.7483 11.0528 22.7501 9.99101 22.75 8.68818L21.25 8.68826C21.2501 9.99014 21.2483 11.0494 21.2451 11.7916C21.2435 12.1629 21.2416 12.4536 21.2393 12.6551C21.2382 12.7562 21.237 12.8326 21.2358 12.8848C21.2351 12.9112 21.2346 12.9283 21.2342 12.9379C21.2329 12.9695 21.2331 12.9289 21.2415 12.8783L22.7213 13.1233ZM22.75 8.68818C22.7499 6.88084 22.7489 5.82364 22.7447 5.2039C22.7427 4.89502 22.7398 4.68861 22.7357 4.5502C22.7323 4.4382 22.7277 4.30668 22.7045 4.19844L21.2378 4.51268C21.2269 4.46203 21.232 4.44881 21.2364 4.59491C21.2399 4.7146 21.2427 4.90606 21.2448 5.21389C21.2488 5.82757 21.2499 6.87912 21.25 8.68826L22.75 8.68818ZM22.7045 4.19849C22.5671 3.55697 22.0298 3.06977 21.3954 2.96796L21.1577 4.449C21.1735 4.45153 21.1948 4.46057 21.2139 4.47836C21.2331 4.49625 21.2374 4.51094 21.2378 4.51263L22.7045 4.19849ZM21.3954 2.96795C21.3318 2.95775 21.2586 2.95525 21.2355 2.9543C21.1919 2.95253 21.1378 2.95102 21.0768 2.94969C20.954 2.94703 20.7906 2.94485 20.602 2.94312C20.2242 2.93966 19.7361 2.93793 19.249 2.9379C18.7618 2.93787 18.2735 2.93955 17.8952 2.94297C17.7063 2.94467 17.5427 2.94683 17.4195 2.94948C17.3327 2.95135 17.1875 2.95392 17.1022 2.96727L17.3342 4.44923C17.2925 4.45576 17.3015 4.45237 17.4518 4.44913C17.5658 4.44668 17.7222 4.44459 17.9087 4.44291C18.281 4.43954 18.7645 4.43787 19.2489 4.4379C19.7333 4.43793 20.2165 4.43966 20.5883 4.44306C20.7746 4.44477 20.9307 4.44687 21.0442 4.44934C21.1013 4.45058 21.1446 4.45184 21.1743 4.45305C21.2243 4.4551 21.2001 4.4558 21.1577 4.44901L21.3954 2.96795ZM17.1023 2.96727C16.3851 3.07948 15.8538 3.65727 15.7686 4.36322L17.2578 4.5429C17.2618 4.50993 17.2747 4.48763 17.2878 4.47375C17.3007 4.46013 17.3159 4.45209 17.3342 4.44923L17.1023 2.96727ZM15.8312 13.3665C15.9074 13.5874 16.0404 13.8157 16.2127 14.0004C16.368 14.1667 16.6694 14.4173 17.0924 14.4187L17.0974 12.9187C17.196 12.9191 17.2625 12.9499 17.2889 12.9648C17.3147 12.9794 17.3198 12.9881 17.3095 12.9771C17.3005 12.9675 17.2873 12.9506 17.2739 12.9282C17.2605 12.9057 17.2524 12.8868 17.249 12.8769L15.8312 13.3665ZM7.47491 15.0732C6.94997 16.2568 6.55464 17.932 6.65132 19.4048C6.6998 20.1433 6.87606 20.8939 7.28227 21.5072C7.70559 22.1464 8.35209 22.5929 9.22187 22.7216L9.44147 21.2378C9.00243 21.1728 8.72654 20.9714 8.53287 20.6789C8.3221 20.3607 8.18679 19.8961 8.1481 19.3066C8.07042 18.1233 8.39833 16.691 8.8461 15.6814L7.47491 15.0732ZM9.20598 22.7191C9.51036 22.7709 9.95986 22.77 10.4129 22.6185C10.8841 22.4609 11.3859 22.128 11.6823 21.5088L10.3293 20.8612C10.2435 21.0405 10.1077 21.1389 9.93705 21.1959C9.74826 21.2591 9.55179 21.2564 9.45735 21.2403L9.20598 22.7191ZM15.7518 13.7761C15.2774 13.1952 15.2773 13.1953 15.2772 13.1953C15.2772 13.1954 15.2771 13.1955 15.277 13.1955C15.2768 13.1957 15.2766 13.1959 15.2764 13.1961C15.2758 13.1965 15.2752 13.197 15.2743 13.1977C15.2727 13.1991 15.2703 13.201 15.2674 13.2034C15.2615 13.2083 15.2532 13.2152 15.2424 13.2241C15.2209 13.2419 15.1899 13.2678 15.1506 13.3011C15.0718 13.3677 14.9593 13.464 14.8217 13.5852C14.5469 13.8273 14.17 14.1705 13.7609 14.5755C12.9591 15.3692 11.9708 16.4607 11.4226 17.5217L12.7553 18.2102C13.1888 17.3712 14.0319 16.4178 14.8161 15.6416C15.2 15.2616 15.5548 14.9385 15.8134 14.7107C15.9425 14.5969 16.0471 14.5073 16.1189 14.4467C16.1547 14.4164 16.1823 14.3933 16.2006 14.3782C16.2097 14.3706 16.2165 14.365 16.2208 14.3614C16.223 14.3596 16.2245 14.3584 16.2254 14.3576C16.2259 14.3573 16.2262 14.357 16.2263 14.3569C16.2264 14.3568 16.2264 14.3568 16.2264 14.3568C16.2264 14.3568 16.2264 14.3569 16.2264 14.3569C16.2263 14.3569 16.2263 14.357 15.7518 13.7761ZM11.4226 17.5217C11.0669 18.2103 10.8749 18.9122 10.7281 19.4988C10.5706 20.1283 10.4782 20.55 10.3293 20.8612L11.6823 21.5088C11.9155 21.0215 12.0513 20.3902 12.1833 19.8629C12.3259 19.2929 12.4844 18.7346 12.7553 18.2102L11.4226 17.5217ZM3.9343 16.059C4.14029 16.0989 4.53388 16.1143 4.91629 16.1235C5.33198 16.1336 5.83281 16.1373 6.3129 16.1378C6.79387 16.1383 7.258 16.1357 7.60161 16.1329C7.7735 16.1315 7.91544 16.1301 8.01449 16.129C8.06402 16.1285 8.10284 16.1281 8.12933 16.1277C8.14258 16.1276 8.15274 16.1275 8.15963 16.1274C8.16307 16.1273 8.16569 16.1273 8.16746 16.1273C8.16835 16.1273 8.16903 16.1273 8.16949 16.1273C8.16972 16.1272 8.1699 16.1272 8.17002 16.1272C8.17008 16.1272 8.17014 16.1272 8.17017 16.1272C8.1702 16.1272 8.17023 16.1272 8.16051 15.3773C8.15078 14.6274 8.15078 14.6274 8.15077 14.6274C8.15074 14.6274 8.15071 14.6274 8.15067 14.6274C8.15057 14.6274 8.15043 14.6274 8.15022 14.6274C8.14982 14.6274 8.14921 14.6274 8.14838 14.6274C8.14673 14.6274 8.14423 14.6275 8.14091 14.6275C8.13428 14.6276 8.12437 14.6277 8.11139 14.6279C8.08542 14.6282 8.04717 14.6286 7.99825 14.6291C7.90038 14.6302 7.75985 14.6316 7.58953 14.633C7.24872 14.6357 6.78946 14.6383 6.31455 14.6378C5.83877 14.6373 5.35123 14.6336 4.95255 14.624C4.75286 14.6191 4.58009 14.6129 4.44445 14.6052C4.37661 14.6013 4.32176 14.5973 4.27965 14.5933C4.2338 14.5889 4.21726 14.5859 4.2199 14.5864L3.9343 16.059ZM16.4005 3.10544C14.7474 1.97414 12.9653 1.84035 11.0072 1.53924L10.7792 3.02181C12.9032 3.34844 14.2526 3.4531 15.5533 4.3433L16.4005 3.10544ZM11.0072 1.53924C9.96141 1.37841 8.9436 1.28081 8.05153 1.25619C7.17322 1.23194 6.36733 1.27668 5.76968 1.42651L6.13446 2.88148C6.533 2.78156 7.17718 2.73263 8.01014 2.75562C8.82934 2.77823 9.78401 2.86877 10.7792 3.02181L11.0072 1.53924ZM5.76968 1.42651C5.66266 1.45334 4.80538 1.63559 4.06964 2.22643C3.69074 2.5307 3.32623 2.95626 3.11672 3.53656C2.90596 4.12031 2.87272 4.80372 3.06696 5.5862L4.52277 5.22482C4.38912 4.6864 4.43214 4.31029 4.52759 4.04594C4.62428 3.77813 4.7959 3.567 5.00885 3.39599C5.45678 3.03629 6.006 2.91369 6.13445 2.88148L5.76968 1.42651ZM3.18231 4.97277C2.82603 5.47709 2.52752 5.95562 2.3722 6.49928C2.21107 7.06331 2.22175 7.629 2.35483 8.29054L3.82537 7.99472C3.72338 7.48775 3.73847 7.17745 3.8145 6.91133C3.89634 6.62484 4.06775 6.31907 4.40743 5.83826L3.18231 4.97277ZM2.45122 7.74978C2.10345 8.31535 1.87057 8.83501 1.79835 9.40749C1.72633 9.97843 1.82412 10.5247 1.99765 11.1211L3.43792 10.7021C3.28826 10.1877 3.25182 9.87058 3.28656 9.59523C3.3211 9.32143 3.43598 9.01198 3.72898 8.53548L2.45122 7.74978ZM2.08012 10.5168C1.698 11.134 1.36502 11.6165 1.26497 12.5339L2.75612 12.6965C2.81456 12.1607 2.95888 11.9469 3.35546 11.3064L2.08012 10.5168ZM17.0924 14.4187C17.3014 14.4194 21.0782 14.4459 21.4118 14.4305L21.3427 12.9321C21.3427 12.9321 21.3422 12.9321 21.3412 12.9321C21.3401 12.9322 21.3386 12.9322 21.3367 12.9323C21.3328 12.9324 21.3278 12.9325 21.3213 12.9327C21.3083 12.933 21.2915 12.9333 21.2708 12.9336C21.2294 12.9341 21.1756 12.9345 21.1105 12.9349C20.9805 12.9355 20.81 12.9357 20.6119 12.9354C20.2158 12.935 19.7135 12.9331 19.2126 12.9307C18.2142 12.9259 17.2155 12.9191 17.0974 12.9187L17.0924 14.4187ZM16.2309 14.3532L17.0191 13.6988L16.061 12.5447L15.2728 13.199L16.2309 14.3532ZM15.5533 4.3433C15.5466 4.3387 15.5656 4.35137 15.6052 4.39952C15.6417 4.44385 15.6803 4.49928 15.7175 4.55922C15.754 4.61803 15.7843 4.67327 15.8053 4.71365C15.8156 4.73353 15.8233 4.74903 15.828 4.75859C15.8303 4.76335 15.8318 4.76658 15.8325 4.76807C15.8329 4.76882 15.833 4.76913 15.833 4.76898C15.8329 4.7689 15.8328 4.76871 15.8327 4.7684C15.8326 4.76824 15.8325 4.76805 15.8324 4.76784C15.8324 4.76773 15.8323 4.76761 15.8323 4.76749C15.8323 4.76743 15.8322 4.76733 15.8322 4.7673C15.8321 4.7672 15.8321 4.7671 16.5132 4.45306C17.1943 4.13901 17.1942 4.13891 17.1942 4.1388C17.1942 4.13876 17.1941 4.13865 17.1941 4.13857C17.194 4.13842 17.1939 4.13825 17.1938 4.13808C17.1937 4.13774 17.1935 4.13736 17.1933 4.13695C17.1929 4.13613 17.1925 4.13517 17.192 4.13409C17.191 4.13193 17.1897 4.12924 17.1882 4.12607C17.1852 4.11973 17.1812 4.11141 17.1763 4.10133C17.1665 4.08121 17.1529 4.05386 17.1358 4.02108C17.102 3.95612 17.0531 3.86674 16.9921 3.76842C16.8865 3.59822 16.6842 3.29961 16.4005 3.10544L15.5533 4.3433ZM15.7632 4.45538L15.7901 13.124L17.2901 13.1194L17.2632 4.45073L15.7632 4.45538Z" fill="black"/>
</svg>

<svg width="24" height="24" viewBox="0 0 24 24" fill="none" xmlns="http://www.w3.org/2000/svg"><path d="m2.01 12.615-.745-.081-.001.008v.009l.747.064Zm.742 2 .529-.533-.529.533Zm18.625-.934-.034-.749.034.75Zm.604-.68-.74-.123.74.123ZM22 8.688h.75H22Zm-.029-4.332-.733.157.733-.157Zm-.694-.648.118-.74-.118.74Zm-4.059 0 .116.741-.116-.74Zm-9.057 11.67.685.303a.75.75 0 0 0-.695-1.054l.01.75Zm1.17 6.602.126-.74-.008-.001-.008-.001-.11.742Zm1.675-.795-.677-.324.677.324Zm4.746-7.409.474.581.005-.004-.48-.577Zm-3.663 4.09-.666-.344.666.344Zm3.888-14.142-.424.62.424-.62ZM5.952 2.154l.182.727-.182-.727ZM3.795 5.406l.612.432.198-.28-.082-.333-.728.18ZM3.09 8.143l.639.392.155-.25-.059-.29-.735.148Zm-.372 2.769.637.394.176-.283-.093-.32-.72.209ZM1.263 12.55c-.086.997.247 1.888.96 2.596l1.058-1.065c-.404-.4-.57-.856-.523-1.402l-1.495-.13Zm.96 2.596c.49.485 1.041.782 1.711.912l.286-1.473a1.72 1.72 0 0 1-.94-.504l-1.056 1.065Zm19.189-.716c.438-.02.756-.274.943-.501a1.74 1.74 0 0 0 .366-.807l-1.48-.245a.227.227 0 0 1-.045.1c-.008.01-.005.003.015-.01a.286.286 0 0 1 .132-.036l.069 1.498Zm1.31-1.308c.01-.059.01-.12.01-.122a23.831 23.831 0 0 0 .006-.329c.003-.207.006-.502.007-.874.003-.745.005-1.807.005-3.11h-1.5a753.286 753.286 0 0 1-.01 3.967 20.288 20.288 0 0 1-.006.283c-.001.031 0-.01.007-.06l1.48.245Zm.028-4.435c0-1.807-.001-2.864-.005-3.484a30.816 30.816 0 0 0-.01-.654 2.077 2.077 0 0 0-.03-.352l-1.467.315c-.011-.051-.006-.064-.002.082.004.12.007.311.009.619.004.614.005 1.665.005 3.474h1.5Zm-.046-4.49a1.604 1.604 0 0 0-1.309-1.23l-.237 1.481a.112.112 0 0 1 .08.064l1.466-.315Zm-1.309-1.23c-.063-.01-.136-.013-.16-.014a40.4 40.4 0 0 0-.633-.011 157.848 157.848 0 0 0-3.183.006c-.086.002-.232.005-.317.018l.232 1.482c-.041.007-.032.003.118 0l.457-.006a156.157 156.157 0 0 1 3.265.01c.05.002.026.003-.016-.004l.237-1.481Zm-4.293 0a1.595 1.595 0 0 0-1.333 1.395l1.489.18a.12.12 0 0 1 .03-.07.079.079 0 0 1 .046-.024l-.232-1.482Zm-1.27 10.398a1.8 1.8 0 0 0 .38.634c.156.167.457.417.88.419l.005-1.5c.099 0 .165.03.192.046.026.014.03.023.02.012a.3.3 0 0 1-.06-.1l-1.418.49Zm-8.357 1.707c-.525 1.184-.92 2.859-.824 4.332.049.738.225 1.489.631 2.102.424.64 1.07 1.086 1.94 1.215l.22-1.484c-.44-.065-.715-.267-.91-.56-.21-.317-.345-.782-.384-1.371-.078-1.184.25-2.616.698-3.626l-1.371-.608Zm1.731 7.646c.304.052.754.051 1.207-.1a2.13 2.13 0 0 0 1.27-1.11l-1.354-.648a.626.626 0 0 1-.392.335c-.189.063-.385.06-.48.044l-.251 1.48Zm6.546-8.943-.475-.58-.003.002-.007.005-.025.021-.091.077a25.298 25.298 0 0 0-1.39 1.274c-.802.794-1.79 1.886-2.338 2.947l1.332.688c.434-.839 1.277-1.792 2.061-2.568a23.808 23.808 0 0 1 1.385-1.264l.02-.017.004-.003.001-.001-.474-.58Zm-4.33 3.746c-.355.688-.547 1.39-.694 1.977-.157.63-.25 1.051-.399 1.362l1.353.648c.233-.488.37-1.119.501-1.646.143-.57.301-1.128.572-1.653l-1.332-.688Zm-7.488-1.463c.206.04.6.055.982.064.416.01.917.014 1.397.015a143.911 143.911 0 0 0 1.847-.01h.01l-.01-.75-.01-.75h-.039a96.022 96.022 0 0 1-.521.005c-.341.003-.8.005-1.275.005-.476 0-.964-.004-1.362-.014a16.532 16.532 0 0 1-.673-.03.505.505 0 0 1-.06-.008l-.286 1.473ZM16.4 3.105c-1.653-1.13-3.435-1.265-5.393-1.566l-.228 1.483c2.124.326 3.474.431 4.774 1.321l.848-1.238ZM11.008 1.54a24.28 24.28 0 0 0-2.955-.283c-.879-.024-1.685.02-2.282.17l.364 1.455c.399-.1 1.043-.148 1.876-.125.82.022 1.774.113 2.77.266l.227-1.483ZM5.77 1.427c-.107.026-.965.209-1.7.8a2.97 2.97 0 0 0-.953 1.31c-.211.583-.244 1.267-.05 2.05l1.456-.362c-.134-.539-.09-.915.005-1.18.096-.267.268-.478.48-.649.449-.36.998-.482 1.126-.515L5.77 1.427ZM3.182 4.973c-.356.504-.654.983-.81 1.526-.16.564-.15 1.13-.017 1.792l1.47-.296c-.102-.507-.087-.818-.01-1.084.081-.286.253-.592.592-1.073l-1.225-.865Zm-.73 2.777c-.349.565-.581 1.085-.654 1.657-.072.571.026 1.118.2 1.714l1.44-.419c-.15-.514-.186-.831-.151-1.107.034-.274.149-.583.442-1.06L2.451 7.75Zm-.372 2.767c-.382.617-.715 1.1-.815 2.017l1.491.162c.059-.535.203-.75.6-1.39l-1.276-.79Zm15.012 3.902c.21 0 3.986.027 4.32.011l-.07-1.498h-.021a6.117 6.117 0 0 1-.21.003h-.5c-.395 0-.898-.002-1.398-.004l-2.116-.012-.005 1.5Zm-.861-.066.788-.654-.958-1.154-.788.654.958 1.154Zm-.678-10.01c-.006-.004.013.008.052.057.037.044.075.1.112.16a2.386 2.386 0 0 1 .111.199l.005.01v-.001l.68-.315.681-.314v-.002l-.002-.003-.004-.008a2.723 2.723 0 0 0-.052-.105 3.892 3.892 0 0 0-.144-.253c-.105-.17-.308-.468-.591-.663l-.848 1.238Zm.21.112.027 8.669 1.5-.005-.027-8.668-1.5.004Z" fill="#000"/></svg>
